X: 6
T: Scotch Mary
R: reel
M: 4/4
L: 1/8
K: Amix
|: ed | cAAB cded | cAAF G2 ed | cAAB cded | cABG A2 :||: ag | eaag e2 ed | cdef g2 fg | eaag e2 ed | cABG A2 :|


Tune 96	Setting 12649

